X:23
T:Marche 
R:
O:Östergötland
B:Magnus Juringius notbok
N:Smus MMD1 bild 9
M:4/4
L:1/8
K:D
d2 d2 d2 d2 | defe defg | f2 f2 f2 f2 | fgag fgaf | a2 a2 a2 a2 | a2 ga bagf |
g2 g2 g2 g2 | g2 fg agfe | f2 f2 f2 f2 | f2 ef g2 fg | a2 a2 a2 gf | {f}e6 :|:
e2 e2 e2 de | fefg Tf4 | g2 g2 g2 fg | agab Ta4 | a2 a2 a2 ga | bagf e4 |
g2 g2 g2 fg | agfe d4 | fede fede | e2 e2 d2 e2 | fgag f2 e2 | d6 :|

